packages/design-assets/icons/16px/Charts/KPI.svg

<?xml version="1.0" encoding="UTF-8"?>
<svg width="16px" height="16px" viewBox="0 0 16 16" version="1.1" xmlns="http://www.w3.org/2000/svg" xmlns:xlink="http://www.w3.org/1999/xlink">
    <!-- Generator: Sketch 54.1 (76490) - https://sketchapp.com -->
    <title>Icons/16px/Charts/KPI</title>
    <desc>Created with Sketch.</desc>
    <g id="Icons/16px/Charts/KPI" stroke="none" stroke-width="1" fill="none" fill-rule="evenodd">
        <path d="M4,10.986631 L2.48128342,10.986631 L2.48128342,3.76420095 L1,4.459165 L1,2.92634711 L3.83957219,1.51693405 L4,1.51693405 L4,10.986631 Z M9.65429688,10.986631 L4.62695312,10.986631 L4.62695312,9.68106618 L6.93554688,6.41062625 C7.22851709,5.95802818 7.44433524,5.56092285 7.58300781,5.21929834 C7.72168038,4.87767383 7.79101562,4.55019792 7.79101562,4.2368608 C7.79101562,3.81472605 7.72558659,3.48398627 7.59472656,3.24463152 C7.46386653,3.00527677 7.27539186,2.88560119 7.02929688,2.88560119 C6.75976428,2.88560119 6.54589923,3.02486004 6.38769531,3.30338194 C6.2294914,3.58190383 6.15039062,3.97356936 6.15039062,4.47839029 L4.48632812,4.47839029 C4.48632812,3.89523508 4.59472548,3.36213477 4.81152344,2.87907336 C5.0283214,2.39601196 5.33300585,2.02066582 5.72558594,1.75302369 C6.11816603,1.48538156 6.56249752,1.3515625 7.05859375,1.3515625 C7.82031631,1.3515625 8.41113071,1.58547386 8.83105469,2.0533036 C9.25097866,2.52113334 9.4609375,3.18587679 9.4609375,4.04755389 C9.4609375,4.58283815 9.34472772,5.1257301 9.11230469,5.67624603 C8.87988165,6.22676196 8.45898742,6.90456093 7.84960938,7.70966327 L6.75390625,9.45259233 L9.65429688,9.45259233 L9.65429688,10.986631 Z M11.1129032,5.39228568 L11.9020737,5.39228568 C12.2016144,5.39228568 12.4214663,5.27369806 12.5616359,5.03651926 C12.7018056,4.79934046 12.7718894,4.48274415 12.7718894,4.08672084 C12.7718894,3.70810514 12.6998855,3.41326803 12.5558756,3.20220066 C12.4118656,2.99113329 12.2188952,2.88560119 11.9769585,2.88560119 C11.7503829,2.88560119 11.5650929,2.98569349 11.4210829,3.1858811 C11.277073,3.38606871 11.2050691,3.63847539 11.2050691,3.94310871 L9.57488479,3.94310871 C9.57488479,3.44699159 9.67569024,3.00201602 9.87730415,2.60816866 C10.0789181,2.2143213 10.3611733,1.90642867 10.7240783,1.68448153 C11.0869834,1.4625344 11.4892451,1.3515625 11.9308756,1.3515625 C12.7027688,1.3515625 13.3076015,1.59308958 13.7453917,2.07615099 C14.1831819,2.55921239 14.4020737,3.22069196 14.4020737,4.06060954 C14.4020737,4.49144809 14.3031884,4.89072935 14.1054147,5.25846528 C13.9076411,5.62620122 13.6474671,5.90798281 13.3248848,6.10381852 C13.7204321,6.29530232 14.015168,6.58252371 14.2091014,6.96549131 C14.4030348,7.34845891 14.5,7.8010502 14.5,8.32327874 C14.5,9.16754823 14.2628672,9.84425924 13.7885945,10.3534321 C13.3143217,10.8626049 12.6912481,11.1171875 11.9193548,11.1171875 C11.2012253,11.1171875 10.6184738,10.8658688 10.1710829,10.3632238 C9.72369208,9.86057883 9.5,9.20018722 9.5,8.38202916 L11.1301843,8.38202916 C11.1301843,8.72147772 11.2089086,9.00652319 11.3663594,9.23717413 C11.5238103,9.46782507 11.7235011,9.58314881 11.9654378,9.58314881 C12.2457771,9.58314881 12.4675491,9.46564915 12.6307604,9.23064631 C12.7939716,8.99564346 12.875576,8.68231103 12.875576,8.29063962 C12.875576,7.35498014 12.5549187,6.8849815 11.9135945,6.8806296 L11.1129032,6.8806296 L11.1129032,5.39228568 Z M5.32907052e-15,14 L16,14 L16,16 L5.32907052e-15,16 L5.32907052e-15,14 Z" id="i-16-chart-kpi" fill="#818F99"></path>
    </g>
</svg>

<svg width="16" height="16" xmlns="http://www.w3.org/2000/svg"><path d="M4 10.987H2.481V3.764L1 4.46V2.926l2.84-1.41H4v9.47zm5.654 0H4.627V9.68l2.309-3.27a7.37 7.37 0 0 0 .647-1.192 2.61 2.61 0 0 0 .208-.982c0-.422-.065-.753-.196-.992-.131-.24-.32-.36-.566-.36-.27 0-.483.14-.641.418-.159.279-.238.67-.238 1.175H4.486c0-.583.109-1.116.326-1.599.216-.483.521-.858.914-1.126a2.311 2.311 0 0 1 1.333-.401c.761 0 1.352.233 1.772.701.42.468.63 1.133.63 1.995 0 .535-.116 1.078-.349 1.628-.232.55-.653 1.229-1.262 2.034L6.754 9.453h2.9v1.534zm1.459-5.595h.79c.299 0 .518-.118.659-.355.14-.238.21-.554.21-.95 0-.379-.072-.674-.216-.885a.668.668 0 0 0-.579-.316c-.227 0-.412.1-.556.3-.144.2-.216.452-.216.757h-1.63c0-.496.1-.941.302-1.335a2.27 2.27 0 0 1 2.054-1.256c.772 0 1.377.241 1.814.724.438.483.657 1.145.657 1.985 0 .43-.099.83-.297 1.197-.197.368-.458.65-.78.846.395.191.69.479.884.861.194.383.291.836.291 1.358 0 .845-.237 1.521-.711 2.03-.475.51-1.098.764-1.87.764-.718 0-1.3-.251-1.748-.754C9.724 9.861 9.5 9.2 9.5 8.382h1.63c0 .34.079.625.236.855.158.23.358.346.6.346a.77.77 0 0 0 .665-.352c.163-.235.245-.549.245-.94 0-.936-.321-1.406-.962-1.41h-.801V5.392zM0 14h16v2H0v-2z" fill="#818F99" fill-rule="evenodd"/></svg>
